svg/regular/bx-coin.svg

<svg xmlns="http://www.w3.org/2000/svg" width="24" height="24"><path d="M12 6C7.03 6 2 7.546 2 10.5v4C2 17.454 7.03 19 12 19s10-1.546 10-4.5v-4C22 7.546 16.97 6 12 6zm-8 8.5v-1.197a9.989 9.989 0 0 0 2 .86v1.881c-1.312-.514-2-1.126-2-1.544zm12 .148v1.971c-.867.179-1.867.31-3 .358v-2a21.75 21.75 0 0 0 3-.329zm-5 2.33a18.788 18.788 0 0 1-3-.358v-1.971c.959.174 1.972.287 3 .33v1.999zm7-.934v-1.881a9.931 9.931 0 0 0 2-.86V14.5c0 .418-.687 1.03-2 1.544zM12 13c-5.177 0-8-1.651-8-2.5S6.823 8 12 8s8 1.651 8 2.5-2.823 2.5-8 2.5z"/></svg>

<svg xmlns="http://www.w3.org/2000/svg" width="24" height="24" viewBox="0 0 24 24"><path d="M12,6C7.03,6,2,7.546,2,10.5v4C2,17.454,7.03,19,12,19s10-1.546,10-4.5v-4C22,7.546,16.97,6,12,6z M4,14.5v-1.197 c0.576,0.335,1.251,0.623,2,0.86v1.881C4.688,15.53,4,14.918,4,14.5z M16,14.648v1.971c-0.867,0.179-1.867,0.31-3,0.358v-2 C14.028,14.935,15.041,14.823,16,14.648z M11,16.978c-1.133-0.048-2.133-0.179-3-0.358v-1.971c0.959,0.174,1.972,0.287,3,0.33 V16.978z M18,16.044v-1.881c0.749-0.237,1.424-0.524,2-0.86V14.5C20,14.918,19.313,15.53,18,16.044z M12,13c-5.177,0-8-1.651-8-2.5 S6.823,8,12,8s8,1.651,8,2.5S17.177,13,12,13z"/></svg>
